app/assets/v2/images/avatar/Clothing/hoodie-43B9F9.svg

<svg width="899" height="1415" xmlns="http://www.w3.org/2000/svg"><g transform="translate(27 970)" fill="none" fill-rule="evenodd"><path d="M845.2 340.4v-.4c0-73.2-43.7-139.4-111-168.2L617.6 122c-61.6-26.4-127.9-39.9-195-39.9-67 0-133.3 13.6-195 39.9L111 171.8C43.7 200.6 0 266.8 0 340v105.6h845.2V340.4z" fill="#43B9F9"/><path d="M181.1 284.1l-8.9 142.4M664.1 284.1l5.4 142.4" stroke="#333" stroke-width="12.523" stroke-linecap="round"/><path fill="#FFF" d="M521.3 100.9H318.1l-30.2 340.4h263.6z"/><path d="M422.6 109c31.5 0 63.2 3.2 94.1 9.5 30.9 6.3 61.3 15.8 90.3 28.2l116.6 49.9c57.5 24.6 94.6 80.9 94.6 143.4V418.6H27V340c0-62.5 37.1-118.8 94.6-143.4l116.6-49.9c29-12.4 59.4-21.9 90.3-28.2 30.9-6.3 62.6-9.5 94.1-9.5zm0-27c-67 0-133.3 13.6-195 39.9L111 171.8C43.7 200.6 0 266.8 0 340v105.6h845.2V340c0-73.2-43.7-139.4-111-168.2L617.6 122c-61.7-26.4-128-40-195-40z" fill="#333" fill-rule="nonzero"/><path d="M600.8 46.9C567.1 22.2 511.2.7 419 .7c-94.3 0-149.2 22.6-181.1 47.9-31.7 25.2-39.1 70.1-18.4 104.9 10.1 16.9 18.7 36.9 16.5 53.7h72.7l9.4-106.2h203.1l9.4 106.2h73.9s4.5-29.9 19.2-56.8c19.4-35.4 9.6-79.8-22.9-103.5z" fill="#43B9F9" fill-rule="nonzero"/><path d="M604.6 207.1s4.2-28.4 18.1-54.8c19.8-37.6 9.2-84.1-25.8-108.2C562.8 20.6 507.8.6 419 .6c-90.4 0-144.6 20.7-177 44.8-34.1 25.3-43.3 72.4-21.8 109C230 171 238.3 190.6 236 207" stroke="#333" stroke-width="27"/><path d="M323.9 113.7l-36 325M515.4 113.7l36.1 325" stroke="#333" stroke-width="12.523" stroke-linecap="round"/><path d="M517.1 113.7c0 1.1.1 19.6.1 20.7 0 53.7-43.6 97.3-97.4 97.3-53.8 0-97.4-43.6-97.4-97.3v-20.7" stroke="#333" stroke-width="10.818" opacity=".15"/><path d="M569.4 207.1s15.3 58.9 15.3 82M287.9 196.6s-35.8 83.4-37.7 155.9" stroke="#333" stroke-width="12.523" stroke-linecap="round"/><circle fill="#333" fill-rule="nonzero" cx="250.2" cy="352.5" r="14.4"/><circle fill="#333" fill-rule="nonzero" cx="584.7" cy="289.1" r="14.4"/></g></svg>

<?xml version="1.0" encoding="UTF-8"?>
<svg width="899px" height="1415px" viewBox="0 0 899 1415" version="1.1" xmlns="http://www.w3.org/2000/svg" xmlns:xlink="http://www.w3.org/1999/xlink">
    <!-- Generator: Sketch 49.3 (51167) - http://www.bohemiancoding.com/sketch -->
    <title>hoodie-43B9F9</title>
    <desc>Created with Sketch.</desc>
    <defs></defs>
    <g id="hoodie-43B9F9" stroke="none" stroke-width="1" fill="none" fill-rule="evenodd">
        <g id="3F2918" transform="translate(27.000000, 970.000000)">
            <g id="Group">
                <g id="Shape">
                    <g>
                        <path d="M845.2,340.4 L845.2,340 C845.2,266.8 801.5,200.6 734.2,171.8 L617.6,122 C556,95.6 489.7,82.1 422.6,82.1 C355.6,82.1 289.3,95.7 227.6,122 L111,171.8 C43.7,200.6 0,266.8 0,340 L0,445.6 L845.2,445.6 L845.2,340.4 Z" fill="#43B9F9"></path>
                        <path d="M181.1,284.1 L172.2,426.5" stroke="#333333" stroke-width="12.5228" stroke-linecap="round"></path>
                        <path d="M664.1,284.1 L669.5,426.5" stroke="#333333" stroke-width="12.5228" stroke-linecap="round"></path>
                        <polygon fill="#FFFFFF" points="521.3 100.9 318.1 100.9 287.9 441.3 551.5 441.3"></polygon>
                        <path d="M422.6,109 C454.1,109 485.8,112.2 516.7,118.5 C547.6,124.8 578,134.3 607,146.7 L723.6,196.6 C781.1,221.2 818.2,277.5 818.2,340 L818.2,340.4 L818.2,418.6 L27,418.6 L27,340 C27,277.5 64.1,221.2 121.6,196.6 L238.2,146.7 C267.2,134.3 297.6,124.8 328.5,118.5 C359.4,112.2 391.1,109 422.6,109 Z M422.6,82 C355.6,82 289.3,95.6 227.6,121.9 L111,171.8 C43.7,200.6 0,266.8 0,340 L0,445.6 L845.2,445.6 L845.2,340.4 L845.2,340 C845.2,266.8 801.5,200.6 734.2,171.8 L617.6,122 C555.9,95.6 489.6,82 422.6,82 Z" fill="#333333" fill-rule="nonzero"></path>
                        <path d="M600.8,46.9 C567.1,22.2 511.2,0.7 419,0.7 C324.7,0.7 269.8,23.3 237.9,48.6 C206.2,73.8 198.8,118.7 219.5,153.5 C229.6,170.4 238.2,190.4 236,207.2 L308.7,207.2 L318.1,101 L521.2,101 L530.6,207.2 L604.5,207.2 C604.5,207.2 609,177.3 623.7,150.4 C643.1,115 633.3,70.6 600.8,46.9 Z" fill="#43B9F9" fill-rule="nonzero"></path>
                        <path d="M604.6,207.1 C604.6,207.1 608.8,178.7 622.7,152.3 C642.5,114.7 631.9,68.2 596.9,44.1 C562.8,20.6 507.8,0.6 419,0.6 C328.6,0.6 274.4,21.3 242,45.4 C207.9,70.7 198.7,117.8 220.2,154.4 C230,171 238.3,190.6 236,207" stroke="#333333" stroke-width="27.0002"></path>
                    </g>
                    <path d="M323.9,113.7 L287.9,438.7" stroke="#333333" stroke-width="12.5228" stroke-linecap="round"></path>
                    <path d="M515.4,113.7 L551.5,438.7" stroke="#333333" stroke-width="12.5228" stroke-linecap="round"></path>
                </g>
                <path d="M517.1,113.7 C517.1,114.8 517.2,133.3 517.2,134.4 C517.2,188.1 473.6,231.7 419.8,231.7 C366,231.7 322.4,188.1 322.4,134.4 L322.4,113.7" id="Shape" stroke="#333333" stroke-width="10.8181" opacity="0.15"></path>
                <path d="M569.4,207.1 C569.4,207.1 584.7,266 584.7,289.1" id="Shape" stroke="#333333" stroke-width="12.5228" stroke-linecap="round"></path>
                <path d="M287.9,196.6 C287.9,196.6 252.1,280 250.2,352.5" id="Shape" stroke="#333333" stroke-width="12.5228" stroke-linecap="round"></path>
                <circle id="Oval" fill="#333333" fill-rule="nonzero" cx="250.2" cy="352.5" r="14.4"></circle>
                <circle id="Oval" fill="#333333" fill-rule="nonzero" cx="584.7" cy="289.1" r="14.4"></circle>
            </g>
        </g>
    </g>
</svg>
